X:1
T:Suite Bergamasque
T:Suite Bergamasque
T:I. Prelude
T:Claude-Achille Debussy
C:Claude-Achille Debussy
%%score { ( 1 2 ) | ( 3 4 ) }
L:1/8
Q:1/4=96
M:4/4
K:F
V:1 treble nm="Piano" snm="Pno."
V:2 treble 
V:3 bass 
V:4 bass 
V:1
"^Moderato (tempo rubato)" z4 g4- | (g/a/b/a/ g/a/g/f/!>(! d/f/d/c/ B/G/D/E/)!>)! | %2
!p! (G/F/G/A/ G2- G/F/G/A/ c/A/G/F/) | (G/F/G/A/ G2- G/F/G/A/ d/A/G/F/-) | %4
!<(! (F/B/d/f/ a2- a!<)!gfg-) | (g/f/e/g/ f2- fe[Fd][Ec]) | z4 [GBdg]4- | %7
 (g/a/b/a/ g/a/g/f/!>(! d/f/d/c/ B/G/D/E/)!>)! |!p! (G/F/G/A/ G2- G/F/G/A/ c/A/G/F/) | %9
 G/F/G/A/ G2- G/F/G/A/ d/A/G/F/ | z2 (!>![df]2- [df]!>(![ce]/[df]/) ([ce][Bd]/[ce]/)!>)! | %11
!<(! (!tenuto![Bd]!tenuto![Gc]!tenuto![Gc]!tenuto![Bd] !tenuto![Ace]!tenuto![Bdg]!tenuto![Bdg]!tenuto![A^ca])!<)! | %12
 z2 (!>![df]2- [df]!>(![ce]/[df]/) ([ce][Bd]/[ce]/)!>)! | %13
!<(! (!tenuto![Bd]!tenuto![Gc]!tenuto![Gc]!tenuto![Bd] !tenuto![Ace]!tenuto![Bdg]!tenuto![Bdg]!tenuto![A^ca])!<)! | %14
 z!p! (c' b/a/g- g/f/g/a/ ed) | z (c B/A/"_cresc." G/F/G/A/ EDF) | %16
[K:bass] z .[E,A,C].[D,F,A,].[E,G,C] z!f! (3C/D/C/ !>!A,!>!C | %17
[K:treble]"^rit." ([B,D][CF][Q:1/4=90] G2-) (G(3G/A/G/[Q:1/4=80] FE) | %18
[Q:1/4=70] F4-!>(! F2 z2!>)! |!p![Q:1/4=96]"^a tempo" (e' =b2 a- ae) =B/4A/4B/4d/4 z | %20
 (e' =b2 a- ae=BA-) | (A/4=B/4A/4G/4E- ED-) (DEFA) |!p! (ED/E/ D) (!tenuto!E- ED/E/ D)[G,=B,E] | %23
!p! (e' =b2 a- ae) =B/4A/4B/4d/4 z | (e' =b2 a) (f' e'2 d') | %25
 (d/4e/4f/4a/4"^m.g." d'2 e') (A/4c/4d/4g/4"^m.g." a- a/g/a/c'/) | %26
 (d/4e/4f/4a/4"^m.g." d'2 e') (A/4c/4d/4g/4"^m.g." a- a/=b/a/g/) | %27
!pp! (^C/4^D/4^F/4A/4 ^c2 ^d) (C/4D/4E/4F/4 ^G- G/=B/G/B/) | %28
 (^C/4^D/4^F/4A/4 ^c- c/^d/c/d/) (c/4!<(!d/4e/4"_poco rit."^f/4 ^g- g/=b/g/b/)!<)! | %29
!p! (=d'=c'/=b/ a/=g/a/b/) (e/f/g/a/) (d/e/f/g/) | (c/d/e/f/ =B2-) B/c/d/e/ A2- | %31
!p! (A=B/A/ ^G/A/^F/G/) (AB/A/ FG) |!p! [A,A]8 | (E"_dim."^G/F/ C/D/E-) (EF/E/ C/D/E-) | %34
 E.E/.^F/ .^G/.A/.B/!>(!.c/ .d/.e/.^f/.^g/ .a/.=b/.c'/.d'/!>)! | %35
!p! .e' (=b2 a- ae) =B/4A/4B/4d/4 z | (e' =b2 a- ae =BA-) | %37
!<(! (A/4=B/4A/4G/4E- E)(D-!<)!!>(! DEFA)!>)! | (ED/E/ D)(!tenuto!E-!p! ED/E/ DE) | %39
!p! (e' =b2 a- a!<(!e) =B/4A/4B/4!<)!d/4 z |!>(! (e' =b2 a)!>)!!>(! (e =B2 A-)!>)! | %41
 (A"_dim." E2 D-)[K:bass] (D/4C/4D/4E/4A,- A,=B,) | z!pp! .[E,A,] z .[D,F,] .[E,A,].[E,A,] z2 | %43
!p! z (C,/D,/ [C,E,]2- E,[D,F,][E,G,][F,A,]) | %44
!<(! ([G,B,][A,C][B,D][CF]!<)!!>(! [DG] [CF]2 [B,D])!>)! | %45
!p! z (C,/D,/ [C,E,]2- E,[D,F,][E,G,][F,A,] | [G,B,][A,C][B,D][CF]) ([DG] [CF]2 [DG]) | %47
[K:treble] z!p! (F/G/ [FA]2- A[GB][Ac][Bd]) | %48
!<(! ([c_e][df][eg][gb] [ac'][fa]!<)!!>(![eg][ce])!>)! | z (F/G/ [FA]2- A[GB][Ac][Bd]) | %50
 [c_e][df][eg][gb]!<(! c'abc'-!<)! |!mf! (c'abc'-) (c'abc'-) | (c'b/a/ ga) (bgab) | %53
 (c'abc'-) (c'abc'-) | (c'b/a/ ga .b)!p!!>(! (GAB)!>)! |!pp! [^ce]8 | [=c^d]8 | [^ce]8 | [=c^d]8 | %59
"_poco" ([Bb][Gg][Aa]"_a"[Bb]) ([Bb][Gg]"_poco"[Aa][Bb]) |"_cresc." [Bb]8 | %61
 ([Bb][Gg][Aa][Bb]) ([Bb][Gg][Aa][Bb]) |"_sempre cresc." [Bb]8 | (fa-) (ag/a/) (fe/f/) (df) | %64
!f!!<(! !trill(!Tc'8({c'd'e'f'}!<)! |!f! g'2) z2 [GBdg]4- | %66
 (g/!>(!a/b/a/ g/a/g/f/ d/f/d/c/ B/G/D/E/)!>)! |!p! (G/F/G/A/ G2- G/F/G/A/ =c/A/G/F/) | %68
 G/F/G/A/ G2- G/F/G/A/ d/A/G/F/- |!<(! (F/B/d/f/ a2-)!<)! (agfg-) | %70
 (g/f/e/g/ f2-!>(! fe[Fd][Ec])!>)! | z4 [GBdg]4- | (g/!>(!a/b/a/ g/a/g/f/ d/f/d/c/ B/G/D/E/)!>)! | %73
!p! (G/F/G/A/ G2- G/F/G/A/ d/A/G/F/) | (G/F/G/A/ G2- G/F/G/A/ d/A/G/F/) | %75
"_cresc." (e/B/A/G/) (f/c/B/A/) (g/d/c/B/) (a/e/d/c/) | %76
 (b/f/e/d/) (c'/g/f/e/) (d'/a/g/f/) (e'/b/a/g/) | %77
"_molto cresc." (g'/d'/c'/b/)[I:staff +1] (g/d/c/B/)[I:staff -1] (f/g/a/b/ c'/d'/e'/f'/) | %78
 (g'/d'/c'/b/)[I:staff +1] (g/d/c/B/)[I:staff -1] (f/g/a/b/ c'/d'/e'/f'/) | %79
!f! (g'/d'/c'/b/)[I:staff +1] (g/d/c/B/)[I:staff -1] (f/g/a/b/ c'/d'/e'/f'/) | %80
!f! [af'a'] z [_EG]2- ([EG][CE]/[EG]/) ([DF][CE]/[DF]/) | %81
 [C_E] !>!C!>!D!>!E g/a/b/c'/ d'/=e'/f'/g'/ | %82
 [af'a'] z !>![_EG]2- ([EG][CE]/[EG]/) (!>![DF][CE]/[DF]/ | %83
 [C_E]) (!>!C!>!D!>!E) (g/a/b/c'/ d'/=e'/f'/g'/) | [bd'b'] z !>!B2- BA/B/ !>!AG/A/ | %85
 G!<(!!>!F!>!G!>!A !>!B!>!c!>!d!>!f!<)! |!ff! c'8 |!ff! [cfc']2 z2 z4 | [fac'f']2 z2 z4 |] %89
V:2
 x4 [GBd]4- | [GBd]2 z2 z4 | C4 D4 | E4 D4- | D2 d2 c4- | c2- cB/A/ B4 | x4 x4 | [GBd]2 z2 z4 | %8
 x8 | x4 _E4 | x8 | x8 | x8 | x8 | x [df]- [df]2 x2 B2 | F3 D2 B,3 |[K:bass] x4 x A,F,G, | %17
[K:treble] x2 D4 D2 | [B,D]2 [A,C][G,B,] [A,C]4 | e6 F x | e6 F2- | FC- CA,- A,4 | =B,4 A,2 x2 | %23
 e6 F x | e4 a4 | =B x2 e' G x a/ x/ x | =B2 x2 G x x2 | =B, x x2 B, x x2 | =B, x x2 =B x x2 | %29
 =f2 d2 =BA- AG- | GF FG AG FE | ^D8 | (E^F/E/ C/D/E-) (EF/E/ C/D/E-) | A,8 | D x x2 x4 | e6 F x | %36
 e6 ^F2 | =FC- CA,- A,4 | =B,6 A,[G,B,] | e6 F x | e4 E4 | A, =B,3[K:bass] A,F,- F,E, | x8 | %43
 x4 C,4 | C,2 F,A, B, A,2 F, | x4 C,4 | C,2 F,A, B, A,2 B, |[K:treble] x4 F4 | F2 c2 c2 c2 | %49
 x4 F4 | F2 c2 [c_e]4 | [df]8 | [_de]8 | [=df]8 | [_de]8 | (=B^GAB- BGAB-) | (BA/^G/ ^FG AFGA) | %57
 (=B^GAB- BGAB-) | (BA/^G/ ^FG AFGA) | [de]2 [ce]2 [de]2 [ce]2 | (df- fe/f/) (dc/d/) (Bd) | %61
 [de]2 [ce]2 [de]2 [ce]2 | (df- fe/f/) (dc/d/) (Bd) | [Bd]8 | x8 | x8 | [GBd]2 x2 x4 | ^C4 D4 | %68
 _E4 D4 | D2 d2 c4- | c2- cB/A/ B2 B2 | x8 | [GBd]2 x2 x4 | D8 | D8 | x8 | x8 | x8 | x8 | x8 | x8 | %81
 x C3 x4 | x8 | x8 | x2 F4- FE | D2 x2 x4 | !>![fb]4 !>![fa]2 (6:4:6!>![dg]/a/g/f/d/g/ | %87
 !>!a2 x2 x4 | x8 |] %89
V:3
!f! (!>!F,,,F,,) !>!C, x [G,B,D]4- | [G,B,D]2 z2 z4 | A,8 | A,8 | %4
 [B,,F,B,]2[K:treble] (F2 E2 DE-) | (E/F/G/A/ D2- DE)[K:bass] C,2 | %6
!f! (!>!F,,,F,,) !>!C, x [G,B,D]4- | [G,B,D]2 z2 z4 | [C_E]8 | [_E,B,D]4 [F,,C,A,]4 | %10
 [B,,,B,,] !>!F,[K:treble] (!>![DF]2- [DF][EG]/[FA]/) ([EG][DF]/[EG]/) | %11
 ([DF][CE][CE][B,F][K:bass] [A,CE][G,B,D][G,B,D][F,A,^C]) | %12
 [B,,,B,,] !>!F,[K:treble] (!>![DF]2- [DF][EG]/[FA]/) ([EG][DF]/[EG]/) | %13
 ([DF][CE][CE][B,F] [A,CE][G,B,D][K:bass] [G,B,D][F,A,^C]) | [G,,,G,,] (F,G,B, DFGF) | %15
 z (E D/C/ B,A,G,F,D,) | z .[A,,,A,,].[B,,,B,,].[C,,C,] z !>![A,,E,]!>!D,!>![C,E,] | %17
!f! [B,,F,][A,,A,] [G,,D,B,]4 [C,B,]2 | (F,, C,2 F,-) (F, C2 F) | %19
[K:treble] !arpeggio![A,Ec]6[K:bass] [D,A,][K:treble][fa=b] | ([A,Ec]6[K:bass] [D,C]2) | %21
 ([G,,D,=B,][C,G,]- [C,G,][F,,C,]-) C,4 | [G,,F,]6- [G,,F,][E,,=B,,E,] | %23
[K:treble] [A,Ec]6[K:bass] [D,A,][K:treble][fa=b] | ([A,Ec]4 [DAf]4) | [G,F]4[K:bass] [C,G,E]4 | %26
 [G,F]4 [C,G,E]4 | [^F,,=B,,A,]4 [E,,B,,^G,]4 | [^F,,=B,,A,]4 [E,=B,G]4 | %29
[K:treble] [=DA]2 [F=B]2 GF- FE- | ED- D2[K:bass] [F,D][E,=B,] [D,C][C,E,] | [=B,,^F,]8 | %32
 [C,^F,]8- | [C,F,]8 | [=B,,^G,]E,, z2 z4 |[K:treble] [A,Ec]6[K:bass] [D,A,][K:treble][fa=b] | %36
 [A,Ec]6[K:bass] [D,C]2 | [G,,D,=B,] [C,G,]2 [F,,C,]- C,4 | [G,,F,]6 =B,,2 | %39
[K:treble] [A,Ec]6[K:bass] [D,A,][K:treble][fa=b] | [A,Ec]4[K:bass] [A,,E,^C]4 | %41
 ([F,,C,] [G,,F,]3) ([A,,E,]D,- D,G,) | z .[A,,C,] z .[G,,=B,,] .[A,,C,].[A,,C,] z2 | %43
 ([B,,,B,,]2 [A,,,A,,]2 [G,,,G,,]2 [F,,,F,,]2 | [E,,,E,,]2 [D,,,D,,]2 [C,,,C,,]2 [D,,,D,,]2) | %45
 ([B,,,B,,]2 [A,,,A,,]2 [G,,,G,,]2 [F,,,F,,]2 | [E,,,E,,]2 [D,,,D,,]2 [C,,,C,,]2 C,2) | %47
 (_E2 D2 C2 B,2 | x2 x2 x2 x2) | _E2 D2 C2 B,2 | x2 x2 AFGA | z4!p! .F,.F z2 | %52
[K:treble] .F.f z2[K:bass] .F,.F z2 | z4!p! .F,.F z2 |[K:treble] .F.f z2[K:bass] .F,.F z2 | %55
 z4 .E,.E z2 |[K:treble] .^f' z .^d' z .c' z .a z |[K:bass] z4 .E,.E z2 | .^F z .^D z .C z .A, z | %59
 ([G,,,G,,]2 [C,,C,]2 [G,,G,]2 [C,C]2) | (DF- FE/F/) (DC/D/) (B,D) | %61
 ([G,,,G,,]2 [C,,C,]2 [G,,G,]2 [C,C]2) |[K:treble] DF- FE/F/ DC/D/ B,D | FA- (AG/A/) (FE/F/) (DF) | %64
 !>![CDFGB]2 G,2[K:bass] !>!C2 !>!C,2 | F,,,F,, !>!C,!>!C,- [G,B,D]4- | [G,B,D]2 z2 z4 | %67
 [F,,^C,A,]4 [B,,F,]4 | A,8 | [B,,F,B,]2[K:treble] (F2 E2 DE-) | (E/F/G/A/ D2- DE)[K:bass] C,2 | %71
!f! F,,,F,, !>!C, x [G,B,D]4- | [G,B,D]2 z2 z4 | [D,A,]4 !arpeggio![G,,D,B,]4 | %74
 [D,A,]4 !arpeggio![G,,D,=B,]4 | x2[K:treble] ([A,C][DF]) ([B,D][EG]) ([CE][FA]) | %76
 ([DF][GB]) ([EG][Ac]) ([FA][Bd]) ([GB][ce]) | !arpeggio![B,FGd]8 | !>![G,CDd]8 | %79
[K:bass] [C,G,B,E]8[K:treble] |[K:bass] [F,,,F,,]C,- [A,C]4- [A,C][F,A,]- | [F,A,]4 !>!=E2 !>!D2 | %82
 [F,,,F,,]C,- [A,C]4- [A,C][F,A,]- | [F,A,]4 =E2 D2 | [B,,,B,,]F, D4- DB, | B,2 x2 x4 | %86
[K:treble] [FBc]4 [FAc]2 [DFG]2 | [CFA]2 z2 z4 |[K:bass] [F,,,C,,F,,]2 z2 z4 |] %89
V:4
 x3 !>!C,- C,4- | C,2 x2 x4 | ([F,,C,]4 [B,,F,]4) | (C,4 D,4) | x2[K:treble] B,6 | %5
 A,4 G,2[K:bass] x2 | x3 !>!C,- C,4- | C,2 x2 x4 | B,4 A,4 | x8 | x2[K:treble] x6 | x4[K:bass] x4 | %12
 x2[K:treble] x6 | x6[K:bass] x2 | x8 | x8 | x8 | x8 | A,,,8 |[K:treble] x6[K:bass] x[K:treble] x | %20
 x6[K:bass] x2 | x4 (F,,E,, D,,2) | x8 |[K:treble] x6[K:bass] x[K:treble] x | x8 | x4[K:bass] x4 | %26
 x8 | x8 | x8 |[K:treble] x4 C2 =B,2 | A,2 A,G,[K:bass] x4 | x8 | x8 | x8 | x8 | %35
[K:treble] x6[K:bass] x[K:treble] x | x6[K:bass] x2 | x4 F,,E,, D,,2 | x6 F,,E,, | %39
[K:treble] x6[K:bass] x[K:treble] x | x4[K:bass] x4 | x8 | x8 | x8 | x8 | x8 | x8 | _E8 | %48
 [A,C_E]2 [G,CEG]2 [F,CEA]2 [G,CEG]2 | _E8 | [A,C_E]2 [G,CEG]2 [F,CE]4 | [B,,,F,,]8- | %52
[K:treble] [xG,D]8[K:bass] | [B,,,F,,]8- |[K:treble] [xG,D]8[K:bass] | [A,,,E,,]8 |[K:treble] x8 | %57
[K:bass] [A,,,E,,]8 | x8 | x8 | [G,B,]8 | x8 |[K:treble] [G,B,]8 | [B,D]8 | x4[K:bass] x4 | %65
 x4 C,4- | C,2 x2 x4 | x8 | C,4 D,4 | x2[K:treble] B,6 | A,4 G,2[K:bass] x2 | x2 x !>!C,- C,4- | %72
 C,2 x2 x4 | x8 | x8 | [C,,C,]8[K:treble] | x8 | x8 | x8 |[K:bass] x2[K:treble] x2 x4 | %80
[K:bass] x2 C,6- | C,4 !arpeggio![C,G,B,]4 | x2 C,6- | C,4 !arpeggio![C,G,B,]4 | %84
 x2 !>!B,2- B,A,/B,/ [A,D]G,/A,/ | G,!>!F,!>!G,!>!A, !>!B,!>!C!>!D!>!F |[K:treble] D4 C2 B,2 | %87
 A,2 x2 x4 |[K:bass] x8 |] %89

